workspaces/client/public/images/svg/euro.svg

<svg width="33" height="33" viewBox="0 0 33 33" fill="none" xmlns="http://www.w3.org/2000/svg">
<path d="M20.5645 22.8099L20.1972 21.1423C20.1764 21.0442 20.1239 20.9708 20.0398 20.922C19.9489 20.873 19.858 20.8662 19.7672 20.9011L19.7147 20.922L19.5887 20.9534C19.5326 20.9672 19.468 20.9831 19.3946 21.0006C19.3211 21.018 19.2356 21.0354 19.1376 21.053C19.04 21.0705 18.9364 21.0863 18.8283 21.1003C18.7199 21.114 18.603 21.1264 18.477 21.137C18.351 21.1473 18.2253 21.1526 18.0993 21.1526C17.2112 21.1526 16.4121 20.9132 15.7024 20.4341C14.9926 19.955 14.4699 19.3064 14.1343 18.4884H18.1935C18.2706 18.4884 18.3405 18.4622 18.4032 18.4097C18.4664 18.3573 18.5048 18.2927 18.5185 18.2155L18.7703 17.0407C18.7913 16.9361 18.7703 16.8416 18.7075 16.7576C18.6376 16.6736 18.55 16.6316 18.4452 16.6316H13.6309C13.6099 16.1561 13.6099 15.789 13.6309 15.5302H18.7496C18.9386 15.5302 19.0504 15.4394 19.0853 15.2576L19.337 14.0618C19.3579 13.9639 19.3338 13.8731 19.2636 13.7891C19.2009 13.7052 19.1135 13.663 19.0016 13.663H14.0925C14.4421 12.8799 14.9665 12.2645 15.6659 11.817C16.3652 11.3693 17.1554 11.1456 18.0365 11.1456C18.0645 11.1316 18.1676 11.1352 18.3458 11.1561C18.5241 11.177 18.6257 11.1858 18.65 11.1823C18.6741 11.1788 18.7654 11.1893 18.9226 11.2137C19.08 11.2381 19.1587 11.2504 19.1587 11.2504L19.3423 11.2871C19.3949 11.2976 19.4351 11.3062 19.463 11.3133L19.505 11.3238C19.5958 11.3519 19.6795 11.3431 19.7567 11.2976C19.8337 11.2521 19.8827 11.184 19.9037 11.0931L20.3548 9.4253C20.3757 9.33437 20.3651 9.25046 20.3234 9.17356C20.2604 9.0895 20.1903 9.03707 20.1134 9.01617C19.4701 8.85536 18.7916 8.7749 18.0785 8.7749C16.5119 8.7749 15.1117 9.22257 13.8774 10.1175C12.6432 11.0126 11.7917 12.1945 11.3232 13.6629H10.2953C10.1974 13.6629 10.117 13.6943 10.0541 13.7573C9.99128 13.8201 9.95972 13.9006 9.95972 13.9985V15.1943C9.95972 15.2922 9.99117 15.3727 10.0541 15.4355C10.1171 15.4985 10.1975 15.5298 10.2953 15.5298H10.9982C10.977 15.8656 10.9737 16.2325 10.9876 16.6313H10.2953C10.2044 16.6313 10.1258 16.6645 10.0594 16.7309C9.99297 16.7973 9.95972 16.876 9.95972 16.9668V18.1521C9.95972 18.2432 9.99297 18.3216 10.0594 18.3882C10.1258 18.4547 10.2044 18.4876 10.2953 18.4876H11.2918C11.7324 20.033 12.5646 21.2621 13.7884 22.1746C15.0122 23.0875 16.4422 23.5436 18.0785 23.5436C18.2115 23.5436 18.346 23.5403 18.4824 23.533C18.6191 23.526 18.7465 23.5154 18.8654 23.5016C18.9842 23.4878 19.1014 23.4722 19.2168 23.4546C19.3321 23.437 19.437 23.4198 19.5314 23.402C19.6258 23.3847 19.7149 23.3672 19.7988 23.3499C19.8828 23.3321 19.9579 23.3132 20.0245 23.292C20.0909 23.2713 20.1466 23.2554 20.1922 23.2451C20.2377 23.2346 20.2744 23.2221 20.3022 23.2084L20.3548 23.1979C20.4317 23.1699 20.4912 23.1192 20.5331 23.0456C20.575 22.9726 20.5853 22.8938 20.5645 22.8099Z" fill="white"/>
</svg>

<svg xmlns="http://www.w3.org/2000/svg" width="33" height="33" fill="none"><path fill="#fff" d="m20.565 22.81-.368-1.668a.32.32 0 0 0-.43-.24l-.052.02-.126.031-.194.048a6.463 6.463 0 0 1-1.295.152q-1.333 0-2.398-.719a4.22 4.22 0 0 1-1.568-1.946h4.06a.32.32 0 0 0 .21-.078.32.32 0 0 0 .114-.195l.252-1.174q.031-.158-.062-.283a.33.33 0 0 0-.263-.126h-4.814a9 9 0 0 1 0-1.102h5.119q.283 0 .335-.272l.252-1.196a.3.3 0 0 0-.073-.273.31.31 0 0 0-.262-.126h-4.91a4.14 4.14 0 0 1 1.574-1.846q1.05-.671 2.37-.671.043-.02.31.01.268.032.304.026.036-.005.273.032l.236.036.183.037q.08.016.121.026l.042.01a.307.307 0 0 0 .399-.23l.45-1.668a.35.35 0 0 0-.03-.251.4.4 0 0 0-.21-.158 8.4 8.4 0 0 0-2.036-.241q-2.349 0-4.2 1.342-1.852 1.343-2.555 3.546h-1.028a.33.33 0 0 0-.24.094.33.33 0 0 0-.095.242v1.195q0 .148.094.241a.33.33 0 0 0 .241.095h.703q-.031.504-.01 1.101h-.693q-.136 0-.236.1a.32.32 0 0 0-.1.236v1.185q0 .137.1.236.1.1.236.1h.997q.66 2.318 2.496 3.687t4.29 1.369a8 8 0 0 0 .787-.042 10 10 0 0 0 .934-.152q.126-.027.226-.058t.167-.047a.5.5 0 0 0 .11-.037l.053-.01a.33.33 0 0 0 .178-.152.3.3 0 0 0 .031-.236"/></svg>
